symbols/web/airline_seat_legroom_extra/materialsymbolssharp/airline_seat_legroom_extra_wght100grad200_40px.svg

<svg xmlns="http://www.w3.org/2000/svg" height="40" width="40"><path d="M4.042 27.542V5.375h1.75v20.417h15.375v1.75Zm26.291 6.083-4.791-9.792H9.25V5.375h8.458v11.667h6.459q.75 0 1.354.437.604.438.896 1.063l5.458 11.125 4.292-1.917 1.333 2.583Z"/></svg>

<svg xmlns="http://www.w3.org/2000/svg" height="40" width="40"><path d="M4.042 27.542V5.375H5.792V25.792H21.167V27.542ZM30.333 33.625 25.542 23.833H9.25V5.375H17.708V17.042H24.167Q24.917 17.042 25.521 17.479Q26.125 17.917 26.417 18.542L31.875 29.667L36.167 27.75L37.5 30.333Z"/></svg>
